Papirus-nordic/32x32/places/folder-nordic-gitlab.svg

<svg xmlns="http://www.w3.org/2000/svg" width="32" height="32" version="1">
 <rect style="opacity:0.2" width="25" height="16" x="3" y="12" rx="1.25" ry="1.25"/>
 <path style="fill:#6c9b9a" d="M 3,21.75 C 3,22.442 3.5575,23 4.25,23 H 26.75 C 27.442,23 28,22.442 28,21.75 V 8.25 C 28,7.5575 27.442,7 26.75,7 H 14 V 6.25 C 14,5.5575 13.443,5 12.75,5 H 4.25 C 3.5575,5 3,5.5575 3,6.25"/>
 <rect style="opacity:0.2" width="25" height="16" x="3" y="10" rx="1.25" ry="1.25"/>
 <rect style="fill:#e4e4e4" width="21" height="10" x="5" y="9" rx="1.25" ry="1.25"/>
 <rect style="fill:#82abaa" width="25" height="16" x="3" y="11" rx="1.25" ry="1.25"/>
 <path style="opacity:0.1;fill:#ffffff" d="M 4.25 5 C 3.5575 5 3 5.5575 3 6.25 L 3 7.25 C 3 6.5575 3.5575 6 4.25 6 L 12.75 6 C 13.443 6 14 6.5575 14 7.25 L 14 8 L 26.75 8 C 27.442 8 28 8.5575 28 9.25 L 28 8.25 C 28 7.5575 27.442 7 26.75 7 L 14 7 L 14 6.25 C 14 5.5575 13.443 5 12.75 5 L 4.25 5 z"/>
 <path style="fill:#4e6766;fill-rule:evenodd" d="m 12.055391,14.000099 c -0.08401,0 -0.168122,0.04757 -0.199495,0.142885 L 10.635908,18 h 2.838967 l -1.219989,-3.857016 c -0.03139,-0.09532 -0.115484,-0.142885 -0.199495,-0.142885 z M 13.474875,18 l 2.02513,6 2.02513,-6 z m 4.05026,0 h 2.838968 l -1.219989,-3.857016 c -0.06274,-0.190645 -0.336216,-0.190645 -0.39899,0 z m 2.838968,0 -4.864098,6 5.327028,-3.819864 c 0.146989,-0.105359 0.208568,-0.292063 0.152435,-0.462577 z m -4.864098,6 -4.864097,-6 -0.615366,1.717559 c -0.05613,0.170514 0.0054,0.357218 0.152435,0.462577 z"/>
</svg>

<svg xmlns="http://www.w3.org/2000/svg" width="32" height="32" version="1"><rect width="25" height="16" x="3" y="12" rx="1.25" ry="1.25" opacity=".2"/><path d="M3 21.75c0 .692.558 1.25 1.25 1.25h22.5c.692 0 1.25-.558 1.25-1.25V8.25C28 7.558 27.442 7 26.75 7H14v-.75C14 5.558 13.443 5 12.75 5h-8.5C3.558 5 3 5.558 3 6.25" fill="#6c9b9a"/><rect width="25" height="16" x="3" y="10" rx="1.25" ry="1.25" opacity=".2"/><rect width="21" height="10" x="5" y="9" rx="1.25" ry="1.25" fill="#e4e4e4"/><rect width="25" height="16" x="3" y="11" rx="1.25" ry="1.25" fill="#82abaa"/><path d="M4.25 5C3.558 5 3 5.558 3 6.25v1C3 6.558 3.558 6 4.25 6h8.5c.693 0 1.25.558 1.25 1.25V8h12.75c.692 0 1.25.557 1.25 1.25v-1C28 7.558 27.442 7 26.75 7H14v-.75C14 5.558 13.443 5 12.75 5h-8.5z" opacity=".1" fill="#fff"/><path d="M12.055 14a.206.206 0 0 0-.2.143L10.636 18h2.84l-1.22-3.857a.206.206 0 0 0-.2-.143zm1.42 4l2.025 6 2.025-6zm4.05 0h2.84l-1.22-3.857c-.064-.19-.337-.19-.4 0zm2.84 0L15.5 24l5.327-3.82a.41.41 0 0 0 .152-.462zM15.5 24l-4.864-6-.615 1.718a.41.41 0 0 0 .152.462z" fill="#4e6766" fill-rule="evenodd"/></svg>
